X:1
T:Pero Mira Como Beben
T:Pero Mira Como Beben
%%score 1 2 3 { 4 | 5 }
L:1/8
Q:1/4=62
M:4/4
K:F
V:1 treble nm="Soprano" snm="S."
V:2 treble nm="Violín" snm="Vln."
V:3 bass nm="Violonchelo" snm="Vc."
V:4 treble nm="Piano de cola" snm="Pno."
V:5 treble 
V:1
 z8 | z8 | z8 | z8 || FF/F/ FE/D/ E>^C A,2 | GG/G/ GF/E/ F>E D2 | FF/F/ FE/D/ E>^C A,2 | %7
 GG/G/ GF/E/ F>E D z/ z/ | F/F/F/F/ FF/F/ G/F/G/F/ EE/E/4F/4 | G/F/G/F/ EE/D/ ^C/D/E/F/ D2 | %10
 FF/F/ FF/F/ G/F/G/F/ EE/E/4F/4 | G/F/G/F/ EE/D/ ^C/D/E/F/ D2 || FF/F/ FE/D/ E>^C A,2 | %13
 GG/G/ GF/E/ F>E D2 | FF/F/ FE/D/ E>^C A,2 | GG/G/ GF/E/ F>E D z/ D/4E/4 | %16
 F/F/F/F/ FF/F/ G/F/G/F/ EE/E/4F/4 | G/F/G/F/ EE/D/ ^C/D/E/F/ D2 | FF/F/ FF/F/ G/F/G/F/ EE/E/4F/4 | %19
 G/F/G/F/ EE/D/ ^C/D/E/F/ D2 | z8 ||[K:Gb] z8 | z8 | GG/G/ GF/E/ F>=D B,2 | AA/A/ AG/F/ G>F E2 | %25
 GG/G/ GF/E/ F>=D B,2 | AA/A/ AG/F/ G>F E z/ z/ | G/G/G/G/ GG/G/ A/G/A/G/ FF/F/4G/4 | %28
 A/G/A/G/ FF/E/ =D/E/F/G/ E2 | GG/G/ GG/G/ A/G/A/G/ FF/F/4G/4 | A/G/A/G/ FF/E/ =D/E/F/G/ E2 | %31
 GG/G/ GF/E/ F>=D B,2 | AA/A/ AG/F/ G>F E2 | GG/G/ GF/E/ F>=D B,2 | AA/A/ AG/F/ G>F E z/ E/4F/4 | %35
 G/G/G/G/ GG/G/ A/G/A/G/ FF/F/4G/4 | A/G/A/G/ FF/E/ =D/E/F/G/ E2 | GG/G/ GG/G/ A/G/A/G/ FF/F/4G/4 | %38
 A/G/A/G/ FF/E/ =D/E/F/G/ E2 | GG/G/ GG/G/ A/G/A/G/ FF/F/4G/4 | A/G/A/G/ FF/E/ =D/E/F/G/ E2 | z8 |] %42
V:2
 z8 | z8 | .d/.d/z/.d/ .d/.d/z/.d/ .d/.d/z/.d/ .d/.d/z/.d/ | %3
 .d/.d/z/.d/ .d/.d/z/.d/ .d/.d/z/.d/ .d/.d/z/.d/ || %4
 .d/.d/z/.d/ .d/.d/z/.d/ .^c/.c/z/.c/ .c/.c/z/.c/ | %5
 .e/.e/z/.e/ .e/.e/z/.e/ .d/.d/z/.d/ .d/.d/z/.d/ | %6
 .d/.d/z/.d/ .d/.d/z/.d/ .^c/.c/z/.c/ .c/.c/z/.c/ | .e/.e/z/.e/ .e/.e/z/.e/ .d/.d/z/.d/ d/c/B/A/ | %8
 G2 B2 d2 B2 | e2 g2 f2 d2 | d2 A2 e2 ^c2 | A2 ^c2 e2 d2 || %12
 .d/.d/z/.d/ .d/.d/z/.d/ .^c/.c/z/.c/ .c/.c/z/.c/ | %13
 .e/.e/z/.e/ .e/.e/z/.e/ .d/.d/z/.d/ .d/.d/z/.d/ | %14
 .d/.d/z/.d/ .d/.d/z/.d/ .^c/.c/z/.c/ .c/.c/z/.c/ | %15
 .e/.e/z/.e/ .e/.e/z/.e/ .d/.d/z/.d/ d z/ ^f/4g/4 | a/a/a/a/ aa/a/ b/a/b/a/ gg/g/4a/4 | %17
 b/a/b/a/ gg/f/ e/f/g/a/ f2 | AA/A/ AA/A/ B/A/B/A/ GG/G/4A/4 | B/A/B/A/ GG/F/ E/F/G/A/ F2 | %20
 G2 ^F2 A2 _A2 ||[K:Gb] .e/.e/z/.e/ .e/.e/z/.e/ .e/.e/z/.e/ .e/.e/z/.e/ | %22
 .e/.e/z/.e/ .e/.e/z/.e/ .e/.e/z/.e/ .e/.e/z/.e/ | %23
 .e/.e/z/.e/ .e/.e/z/.e/ .=d/.d/z/.d/ .d/.d/z/.d/ | %24
 .f/.f/z/.f/ .f/.f/z/.f/ .e/.e/z/.e/ .e/.e/z/.e/ | %25
 .e/.e/z/.e/ .e/.e/z/.e/ .=d/.d/z/.d/ .d/.d/z/.d/ | .f/.f/z/.f/ .f/.f/z/.f/ .e/.e/z/.e/ e/d/c/B/ | %27
 A2 c2 e2 c2 | f2 a2 g2 e2 | e2 B2 f2 =d2 | B2 =d2 f2 e2 | %31
 .e/.e/z/.e/ .e/.e/z/.e/ .=d/.d/z/.d/ .d/.d/z/.d/ | %32
 .f/.f/z/.f/ .f/.f/z/.f/ .e/.e/z/.e/ .e/.e/z/.e/ | %33
 .e/.e/z/.e/ .e/.e/z/.e/ .=d/.d/z/.d/ .d/.d/z/.d/ | %34
 .f/.f/z/.f/ .f/.f/z/.f/ .e/.e/z/.e/ e z/ =g/4a/4 | b/b/b/b/ bb/b/ c'/b/c'/b/ aa/a/4b/4 | %36
 c'/b/c'/b/ aa/g/ f/g/a/b/ g2 | BB/B/ BB/B/ c/B/c/B/ AA/A/4B/4 | c/B/c/B/ AA/G/ F/G/A/B/ G2 | z8 | %40
 z8 | z8 |] %42
V:3
 z8 | z8 | .F,/.F,/z/.F,/ .F,/.F,/z/.F,/ .F,/.F,/z/.F,/ .F,/.F,/z/.F,/ | %3
 .F,/.F,/z/.F,/ .F,/.F,/z/.F,/ .F,/.F,/z/.F,/ .F,/.F,/z/.F,/ || %4
 .F,/.F,/z/.F,/ .F,/.F,/z/.F,/ .E,/.E,/z/.E,/ .E,/.E,/z/.E,/ | %5
 .G,/.G,/z/.G,/ .G,/.G,/z/.G,/ .F,/.F,/z/.F,/ .F,/.F,/z/.F,/ | %6
 .F,/.F,/z/.F,/ .F,/.F,/z/.F,/ .E,/.E,/z/.E,/ .E,/.E,/z/.E,/ | %7
 .G,/.G,/z/.G,/ .G,/.G,/z/.G,/ .F,/.F,/z/.F,/ F,/E,/D,/C,/ | B,,2 D,2 G,2 D,2 | G,2 B,2 A,2 F,2 | %10
 F,2 D,2 G,2 E,2 | A,,2 ^C,2 E,2 F,2 || %12
 .F,/.F,/z/.F,/ .F,/.F,/z/.F,/ .E,/.E,/z/.E,/ .E,/.E,/z/.E,/ | %13
 .G,/.G,/z/.G,/ .G,/.G,/z/.G,/ .F,/.F,/z/.F,/ .F,/.F,/z/.F,/ | %14
 .F,/.F,/z/.F,/ .F,/.F,/z/.F,/ .E,/.E,/z/.E,/ .E,/.E,/z/.E,/ | %15
 .G,/.G,/z/.G,/ .G,/.G,/z/.G,/ .F,/.F,/z/.F,/ F, z/ D,/4E,/4 | %16
 F,/F,/F,/F,/ F,F,/F,/ G,/F,/G,/F,/ E,E,/E,/4F,/4 | G,/F,/G,/F,/ E,E,/D,/ _D,/=D,/E,/F,/ D,2 | %18
 F,2 D,2 G,2 E,2 | A,,2 ^C,2 E,2 F,2 | _E,2 =B,,2 C,2 B,,2 || %21
[K:Gb] .G,/.G,/z/.G,/ .G,/.G,/z/.G,/ .G,/.G,/z/.G,/ .G,/.G,/z/.G,/ | %22
 .G,/.G,/z/.G,/ .G,/.G,/z/.G,/ .G,/.G,/z/.G,/ .G,/.G,/z/.G,/ | %23
 .G,/.G,/z/.G,/ .G,/.G,/z/.G,/ .F,/.F,/z/.F,/ .F,/.F,/z/.F,/ | %24
 .A,/.A,/z/.A,/ .A,/.A,/z/.A,/ .G,/.G,/z/.G,/ .G,/.G,/z/.G,/ | %25
 .G,/.G,/z/.G,/ .G,/.G,/z/.G,/ .F,/.F,/z/.F,/ .F,/.F,/z/.F,/ | %26
 .A,/.A,/z/.A,/ .A,/.A,/z/.A,/ .G,/.G,/z/.G,/ G,/F,/E,/D,/ | C,2 E,2 A,2 E,2 | A,2 C2 B,2 G,2 | %29
 G,2 E,2 A,2 F,2 | B,,2 =D,2 F,2 G,2 | %31
 .G,/.G,/z/.G,/ .G,/.G,/z/.G,/ .F,/.F,/z/.F,/ .F,/.F,/z/.F,/ | %32
 .A,/.A,/z/.A,/ .A,/.A,/z/.A,/ .G,/.G,/z/.G,/ .G,/.G,/z/.G,/ | %33
 .G,/.G,/z/.G,/ .G,/.G,/z/.G,/ .F,/.F,/z/.F,/ .F,/.F,/z/.F,/ | %34
 .A,/.A,/z/.A,/ .A,/.A,/z/.A,/ .G,/.G,/z/.G,/ G, z/ E,/4F,/4 | %35
 G,/G,/G,/G,/ G,G,/G,/ A,/G,/A,/G,/ F,F,/F,/4G,/4 | A,/G,/A,/G,/ F,F,/E,/ =D,/E,/F,/G,/ E,2 | %37
 G,2 E,2 A,2 F,2 | B,,2 =D,2 F,2 G,2 | z8 | z8 | z8 |] %42
V:4
!ped! !>!d'/a/a'/a/ !>!f'/a/a'/a/ !>!d'/a/a'/a/ !>!f'/a/a'/a/ | %1
 !>!d'/a/a'/a/ !>!f'/a/a'/a/ !>!d'/a/a'/a/ !>!f'/a/a'/a/!ped-up! | %2
 d'/a/a'/a/ f'/a/a'/a/ d'/a/a'/a/ f'/a/a'/a/ | d'/a/a'/a/ f'/a/a'/a/ d'/a/a'/a/ f'/a/a'/a/ || %4
 d'/a/a'/a/ f'/a/a'/a/ ^c'/a/a'/a/ e'/a/a'/a/ | ^c'/a/a'/a/ e'/a/a'/a/ d'/a/a'/a/ f'/a/a'/a/ | %6
 d'/a/a'/a/ f'/a/a'/a/ ^c'/a/a'/a/ e'/a/a'/a/ | ^c'/a/a'/a/ e'/a/a'/a/ d'/a/a'/a/ f'/e'/d'/=c'/ | %8
 b/d/d'/d/ g/d/d'/d/ b/e/d'/e/ g/e/d'/e/ | b/e/d'/e/ g/e/d'/e/ a/e/^c'/e/ f/d/d'/d/ | %10
 a/d/d'/d/ f/d/d'/d/ g/e/^c'/e/ a/e/c'/e/ | g/e/^c'/e/ a/e/c'/e/ g/e/c'/e/ f2 || %12
 d'/a/a'/a/ f'/a/a'/a/ ^c'/a/a'/a/ e'/a/a'/a/ | ^c'/a/a'/a/ e'/a/a'/a/ d'/a/a'/a/ f'/a/a'/a/ | %14
 d'/a/a'/a/ f'/a/a'/a/ ^c'/a/a'/a/ e'/a/a'/a/ | ^c'/a/a'/a/ e'/a/a'/a/ d'/a/a'/a/ f'/e'/d'/=c'/ | %16
 b/d/d'/d/ g/d/d'/d/ b/e/d'/e/ g/e/d'/e/ | b/e/d'/e/ g/e/d'/e/ a/e/^c'/e/ f/d/d'/d/ | %18
 a/d/d'/d/ f/d/d'/d/ g/e/^c'/e/ a/e/c'/e/ | g/e/^c'/e/ a/e/c'/e/ g/e/c'/e/ f2 | %20
 [GB_e]2 [^D^F=B]2 [CFA]2 [D_A]2 ||[K:Gb] [B,EA]8 | z8 | z8 | z8 | z8 | z8 | %27
 [A,CEG]2 [A,CEG]2 [CEFA]2 [CEFA]2 | [CEFA]2 [C=DFA]2 [CDFA]2 [B,EG]2 | %29
 [B,EG]2 [B,EG]2 [=DFAB]2 [DFAB]2 | [=DFAB]2 [CDFA]2 [CDFA]2 [B,EG]2 | %31
 B,/G/E/G/ B,/G/E/G/ A,/F/=D/F/ A,/F/D/F/ | A,/F/=D/F/ A,/F/D/F/ B,/G/E/G/ B,/G/E/G/ | %33
 B,/G/E/G/ B,/G/E/G/ A,/F/=D/F/ A,/F/D/F/ | A,/F/=D/F/ A,/F/D/F/ B,/G/E/G/ E2 | %35
 G/e/c/e/ G/e/c/e/ F/e/c/e/ F/e/c/e/ | F/e/c/e/ F/=d/B/d/ F/d/B/d/ G/e/B/e/ | %37
 G/e/B/e/ G/e/B/e/ F/=d/B/d/ F/d/B/d/ | F/=d/B/d/ F/d/B/d/ F/G/A/B/ G2 | %39
 [EGB]2 [DGB]2 [=CGB]2 [=A,EF]2 | [CEFA]2 [CEF]2 [A,=DF]2 [G,B,E]2 | [CEFA]4 [B,EG]4 |] %42
V:5
 z8 | z8 | .[Fd]2 .[DA]2 .[Fd]2 .[DA]2 | .[Fd]2 .[DA]2 .[Fd]2 .[DA]2 || %4
 .[Fd]2 .[DA]2 .[E^c]2 .[^CA]2 | .[E^c]2 .[^CA]2 .[Fd]2 .[DA]2 | .[Fd]2 .[DA]2 .[E^c]2 .[^CA]2 | %7
 .[E^c]2 .[^CA]2 .[Fd]2 D/E/F/^F/ | [G,G]4 [E,E]4 | [E,E]2 [E,E]2 [A,,A,]2 [D,D]2 | %10
 [D,D]2 [D,D]2 [A,,A,]2 [A,,A,]2 | [A,,A,]2 [A,,A,]2 [^C,^C]2 [D,D]2 || %12
 .[Fd]2 .[DA]2 .[E^c]2 .[^CA]2 | .[E^c]2 .[^CA]2 .[Fd]2 .[DA]2 | .[Fd]2 .[DA]2 .[E^c]2 .[^CA]2 | %15
 .[E^c]2 .[^CA]2 .[Fd]2[K:bass] D,/E,/F,/^F,/ | [G,,G,]4 [C,,C,]4 | %17
 [E,,E,]2 [E,,E,]2 [A,,,A,,]2 [D,,D,]2 | [D,,D,]2 [D,,D,]2 [A,,,A,,]2 [A,,,A,,]2 | %19
 [A,,,A,,]2 [A,,,A,,]2 [^C,,^C,]2 [D,,D,]2 | [_E,,_E,]2 [=B,,=B,]2 [F,,A,]2 [B,,B,]2 || %21
[K:Gb] [E,,E,]8 | z8 | z8 | z8 | z8 | z2 z2 z2 E,/F,/G,/=G,/ | %27
 [A,,A,]2 [A,,A,]2 [D,,D,]2 [D,,D,]2 | [F,,F,]2 [=D,,=D,]2 [B,,,B,,]2 [E,,E,]2 | %29
 [E,,E,]2 [E,,E,]2 [=D,,=D,]2 [D,,D,]2 | [B,,,B,,]2 [B,,,B,,]2 [B,,,B,,]2 [E,,E,]2 | %31
 [E,,E,]4 [B,,,B,,]4 | [B,,,B,,]4 [E,,E,]4 | [E,,E,]4 [B,,,B,,]4 | [B,,,B,,]4 [E,,E,]4 | %35
 A,/E/C/E/ A,/E/C/E/ D,/C/A,/C/ D,/C/A,/C/ | F,/C/A,/C/ B,,/A,/F,/A,/ B,,/A,/F,/A,/ E,/B,/G,/B,/ | %37
 E,/B,/G,/B,/ E,/B,/G,/B,/ B,,/A,/F,/A,/ B,,/A,/F,/A,/ | %38
 B,,/A,/F,/A,/ B,,/A,/F,/A,/ B,,/=C,/=D,/F,/ E,2 | [E,,E,]2 [D,,D,]2 [=C,,=C,]2 [F,,F,]2 | %40
 [F,,F,]2 [C,,C,]2 [B,,,B,,]2 [E,,E,]2 | [A,,,A,,]4 [E,,E,]4 |] %42

